X:1
T:Seasons (Pleyel), LM
T:Seasons (Pleyel), LM
T:Ignaz Josef Pleyel, circa 1790
T:Public Domain Courtesy of the Cyber Hymnal™
C:Ignaz Josef Pleyel, circa 1790
Z:Public Domain
Z:Courtesy of the Cyber Hymnal™
%%score ( 1 2 ) ( 3 4 )
L:1/8
M:3/4
K:Ab
V:1 treble 
V:2 treble 
V:3 bass 
V:4 bass 
V:1
 [CE]2 | [Ec]4 [DB]2 | [CA]4 [EA]2 | ([FB]2 [Ec]2) [Ed]2 | [Ec]4 [EB]2 | [Ec]4 [DB]2 | %6
 [CA]4 ([EB][FA]) | ([EG]3 [FA]) [=DF]2 | E4 (cd) | e4 [Af]2 | ([Ae]2 [Gd]2) [EB]2 | c3 z e (dB) | %12
 (A2 G2) E2 | [Ec]4 [GB]2 | (A2 [FB]2) [Ec]2 | (d2 F2) G2 | [CA]4 |] %17
V:2
 x2 | x6 | x6 | x6 | x6 | x6 | x6 | x6 | E4 E2 | (E2 A2) x2 | x6 | E2 (_G2 F2) x | E4 x2 | x6 | %14
 A2 x4 | D4 (ED) | x4 |] %17
V:3
 [A,,A,]2 | [A,,A,]4 [E,G,]2 | [F,A,]4 [C,A,]2 | A,4 [E,G,]2 | A,4 [E,G,]2 | A,4 [E,G,]2 | %6
 [F,A,]4 ([G,B,][A,C]) | B,4 [B,,A,]2 | [E,G,]4 (A,B,) | [A,C]4 [D,D]2 | (C2 B,2) [E,G,]2 | %11
 A,2 C,2 (B,D) x | (C2 B,2) [E,G,]2 | (A,2 E2) [E,D]2 | [F,C]2 [D,B,]2 [C,=A,]2 | %15
 [B,,B,]4 [E,B,]2 | [A,,A,]4 |] %17
V:4
 x2 | x6 | x6 | (D,2 E,2) x2 | A,4 x2 | A,4 x2 | x6 | B,4 x2 | x6 | x6 | E,4 x2 | A,4 D,2 x | %12
 E,4 x2 | A,,4 x2 | x6 | x6 | x4 |] %17

